src/static/logos/opsgenie.svg

<svg width="256" height="256" xmlns="http://www.w3.org/2000/svg" preserveAspectRatio="xMidYMid"><path d="M256 128c0 70.692-57.308 128-128 128C57.308 256 0 198.692 0 128 0 57.308 57.308 0 128 0c70.692 0 128 57.308 128 128" fill="#FC8E2E"/><path d="M99.372 135.292c3.506-2.703 6.199-6.002 7.998-10.107-5.125 3.185-9.803 6.561-14.884 9.147-9.055 4.608-18.907 6.619-28.959 7.722-5.779.635-11.445 1.765-16.614 4.599-6.323 3.466-9.584 8.767-9.233 16.053.448 9.279 4.736 17.075 9.356 24.769-.125-7.078-.55-13.753-.287-20.4.366-9.267 5.14-15.308 14.294-17.728 6.616-1.749 13.203-3.612 19.772-5.533 6.594-1.928 13.026-4.258 18.557-8.522zm107.759 10.62c-4.581-1.878-9.573-3.129-14.494-3.736-16.104-1.988-31.255-6.132-43.732-17.32-.107.445-.303.775-.217.994.278.7.619 1.384 1.007 2.03 3.085 5.13 7.502 8.883 12.893 11.22 5.139 2.228 10.511 3.949 15.852 5.671 6.647 2.143 13.393 3.977 20.048 6.097 5.074 1.617 8.65 5.117 9.683 10.124 1.003 4.861 1.389 10.351 1.487 15.332.073 3.685-.229 8.467-1.497 10.912 4.972-6.913 8.836-14.273 9.786-22.743.986-8.787-2.598-15.212-10.816-18.581zm-89.239 27.78a84.746 84.746 0 0130.425.272c8.441 1.613 15.229 3.161 24.154 7.738-10.906-6.873-27.548-14.798-40.583-14.617-16.334.227-33.636 6.781-47.751 14.96 7.581-2.206 22.72-6.434 33.755-8.353zm-19.26-87.42c-2.333-8.313-3.237-16.795-2.152-25.353 1.617-12.747 9.14-21.157 18.437-27.622-11.205 1.776-24.144 15.183-25.078 26.566-1.063 12.96 3.881 24.066 11.046 34.248-.752-2.613-1.518-5.222-2.253-7.839zm61.744 133.588c5.971 2.276 10.222-.706 15.869-3.237-16.652-3.633-31.206-11.053-44.209-20.301 6.674 10.895 16.466 19.013 28.34 23.538zm-66.461 1.569c14.756-3.53 26.343-12.608 34.504-24.852-13.297 9.332-28.54 16.498-45.525 20.1l11.021 4.752zm57.512-120.416c10.998-8.274 16.124-18.171 16.696-35.907-2.861 11.328-7.297 21.165-13.616 28.949-1.802-15.166-5.264-23.228-22.427-27.347 15.905 8.353 18.597 20.781 19.347 34.305zm-21.378-54.631c-2.435-2.954-5.439-3.477-7.888-.523-3.189 3.849-3.485 12.23-.577 16.365 2.212 3.147 6.264 3.322 8.155 0 2.287-4.018 2.52-13.161.31-15.842zm-4.605 73.074c-16.02-17.964-17.621-29.177-8.353-49.659-17.049 19.223-13.502 36.615 8.353 49.659zm-20.325 46.063c-7.273-2.526-14.621-3.219-22.084-2.417-9.525 1.022-16.036 6.691-17.535 15.432 10.807-12.29 24.736-14.125 39.619-13.015zm23.382-137.084c4.915-7.379-.171-13.651-.171-13.651s.216 5.33-4.121 11.896c-4.337 6.567 4.121 11.819 4.121 11.819s-2.978-5.337.171-10.064zm39.279 26.602c-1.072-14.01-17.473-25.073-31.233-22.182 12.323 4.855 23.989 10.102 31.233 22.182z" fill="#FFF"/></svg>

<?xml version="1.0" encoding="UTF-8" standalone="no"?>
<svg width="256px" height="256px" viewBox="0 0 256 256" version="1.1" xmlns="http://www.w3.org/2000/svg" xmlns:xlink="http://www.w3.org/1999/xlink" preserveAspectRatio="xMidYMid">
	<g>
		<path d="M256,128 C256,198.692 198.692,256 128,256 C57.308,256 0,198.692 0,128 C0,57.308 57.308,0 128,0 C198.692,0 256,57.308 256,128" fill="#FC8E2E"></path>
		<path d="M99.372,135.292 C102.878,132.589 105.571,129.29 107.37,125.185 C102.245,128.37 97.567,131.746 92.486,134.332 C83.431,138.94 73.579,140.951 63.527,142.054 C57.748,142.689 52.082,143.819 46.913,146.653 C40.59,150.119 37.329,155.42 37.68,162.706 C38.128,171.985 42.416,179.781 47.036,187.475 C46.911,180.397 46.486,173.722 46.749,167.075 C47.115,157.808 51.889,151.767 61.043,149.347 C67.659,147.598 74.246,145.735 80.815,143.814 C87.409,141.886 93.841,139.556 99.372,135.292 Z M207.131,145.912 C202.55,144.034 197.558,142.783 192.637,142.176 C176.533,140.188 161.382,136.044 148.905,124.856 C148.798,125.301 148.602,125.631 148.688,125.85 C148.966,126.55 149.307,127.234 149.695,127.88 C152.78,133.01 157.197,136.763 162.588,139.1 C167.727,141.328 173.099,143.049 178.44,144.771 C185.087,146.914 191.833,148.748 198.488,150.868 C203.562,152.485 207.138,155.985 208.171,160.992 C209.174,165.853 209.56,171.343 209.658,176.324 C209.731,180.009 209.429,184.791 208.161,187.236 C213.133,180.323 216.997,172.963 217.947,164.493 C218.933,155.706 215.349,149.281 207.131,145.912 Z M117.892,173.692 C127.969,171.94 138.27,172.045 148.317,173.964 C156.758,175.577 163.546,177.125 172.471,181.702 C161.565,174.829 144.923,166.904 131.888,167.085 C115.554,167.312 98.252,173.866 84.137,182.045 C91.718,179.839 106.857,175.611 117.892,173.692 Z M98.632,86.272 C96.299,77.959 95.395,69.477 96.48,60.919 C98.097,48.172 105.62,39.762 114.917,33.297 C103.712,35.073 90.773,48.48 89.839,59.863 C88.776,72.823 93.72,83.929 100.885,94.111 C100.133,91.498 99.367,88.889 98.632,86.272 Z M160.376,219.86 C166.347,222.136 170.598,219.154 176.245,216.623 C159.593,212.99 145.039,205.57 132.036,196.322 C138.71,207.217 148.502,215.335 160.376,219.86 Z M93.915,221.429 C108.671,217.899 120.258,208.821 128.419,196.577 C115.122,205.909 99.879,213.075 82.894,216.677 C87.159,218.516 90.445,219.932 93.915,221.429 Z M151.427,101.013 C162.425,92.739 167.551,82.842 168.123,65.106 C165.262,76.434 160.826,86.271 154.507,94.055 C152.705,78.889 149.243,70.827 132.08,66.708 C147.985,75.061 150.677,87.489 151.427,101.013 Z M130.048991,46.3815105 C127.613991,43.4275105 124.61,42.905 122.161,45.859 C118.972,49.708 118.676,58.089 121.584,62.224 C123.796,65.371 127.84842,65.5460002 129.73942,62.2240002 C132.02642,58.2060002 132.258991,49.0625105 130.048991,46.3815105 Z M125.444,119.456 C109.424,101.492 107.823,90.279 117.091,69.797 C100.042,89.02 103.589,106.412 125.444,119.456 Z M105.119,165.519 C97.846,162.993 90.498,162.3 83.035,163.102 C73.51,164.124 66.999,169.793 65.5,178.534 C76.307,166.244 90.236,164.409 105.119,165.519 Z M128.501,28.435 C133.41641,21.0564224 128.33,14.7838542 128.33,14.7838542 C128.33,14.7838542 128.54593,20.1132547 124.209,26.68 C119.87207,33.2467453 128.33,38.499 128.33,38.499 C128.33,38.499 125.352,33.162 128.501,28.435 Z M167.78,55.037 C166.708,41.027 150.307,29.964 136.547,32.855 C148.87,37.71 160.536,42.957 167.78,55.037 Z" fill="#FFFFFF"></path>
	</g>
</svg>
